public/img/retro_swirl.svg

<svg width="451" height="634" viewBox="0 0 451 634" fill="none" xmlns="http://www.w3.org/2000/svg">
<g opacity="0.4">
<path d="M404.686 163.027C430.759 148.633 471.479 132.503 471.479 132.503C491.091 124.745 516.083 115.393 545.73 105.578L562.019 123.381C527.216 131.527 499.326 140.745 480.087 147.766C440.821 162.099 406.706 174.843 375.161 200.556C362.132 211.175 344.629 225.751 338.455 245.991C333.871 261.018 337.656 272.204 340.959 281.959C345.832 296.349 356.793 309.432 378.717 335.6C384.074 341.993 386.501 344.631 390.397 350.134C394.771 356.322 403.905 369.232 407.909 383.585C409.88 390.653 415.617 412.84 401.082 439.58C387.592 464.396 363.748 480.072 350.303 488.724C311.878 513.458 271.48 522.403 232.47 531.041C189.835 540.483 181.222 537.455 138.942 549.27C103.409 559.2 79.5743 569.703 74.5335 571.95C43.9746 585.569 12.1872 599.74 -7.53461 625.783C-13.199 633.266 -23.947 647.863 -22.3546 665.534C-20.7178 683.634 -7.10743 694.24 -1.60311 698.021C-11.5479 703.414 -21.4884 708.804 -31.4357 714.194C-47.6581 699.356 -50.0832 684.211 -50.4958 677.107C-52.04 650.531 -31.7397 627.977 -20.5205 615.507C-7.21332 600.723 6.56629 591.228 15.1856 584.959C45.0818 563.213 74.0279 552.852 102.018 542.831C131.095 532.422 147.375 529.252 167.983 525.24C184.741 521.977 203.732 518.276 235.694 509.55C321.488 486.12 340.576 469.821 347.764 463.684C365.484 448.555 373.937 432.927 376.11 428.5C379.771 421.026 385.563 405.933 383.246 388.793C381.705 377.407 377.564 372.422 368.486 361.503C362.862 354.734 355.155 345.47 345.631 331.496C330.514 309.324 321.39 295.937 318.947 276.029C317.653 265.465 315.234 245.803 329.698 222.914C340.68 205.533 355.778 194.92 373.26 182.634C383.903 175.155 394.375 168.719 404.699 163.02L404.686 163.027Z" fill="#F2E291"/>
<path d="M465.667 84.0175C471.478 80.8094 479.281 76.1805 490.426 70.6571C496.911 67.4427 502.425 64.9219 506.303 63.1994C519.443 77.3282 532.585 91.452 545.726 105.581C531.827 109.99 512.924 116.345 490.924 124.873C466.322 134.412 442.57 143.619 414.64 158.867C387.945 173.443 363.46 186.814 343.143 210.112C336.7 217.502 324.464 231.816 319.77 251.029C316.429 264.707 318.393 274.788 319.974 282.412C323.675 300.258 332.375 312.235 346.079 330.692C358.948 348.024 361.741 347.782 370.648 361.787C380.906 377.913 386.343 386.458 386.931 398.674C388.164 424.253 367.201 446.677 360.463 453.885C336.025 480.026 303.663 493.004 283.234 500.986C271.158 505.704 264.746 507.344 177.895 525.849C120.423 538.094 104.568 541.355 80.6752 551.102C51.8267 562.871 32.3244 575.501 26.392 579.446C4.66873 593.891 -42.508 625.201 -47.8314 665.893C-50.9046 689.366 -38.978 706.305 -31.6983 714.636L-66.9425 734.093C-71.8632 728.389 -78.1029 719.646 -81.9026 707.843C-88.3643 687.778 -84.0119 670.581 -80.5077 656.735C-78.5914 649.157 -74.6973 637.158 -64.4415 622.284C-53.3546 606.205 -40.4626 595.422 -32.3752 588.748C-12.3358 572.209 6.70417 562.375 24.0405 553.543C36.5402 547.174 56.0777 537.984 81.349 529.213C114.344 517.761 141.218 512.539 168.062 507.325C193.577 502.369 214.499 499.479 248.208 490.279C261.185 486.737 268.754 484.255 277.269 480.326C284.578 476.952 306.674 466.5 322.127 446.63C322.127 446.63 339.063 424.853 336.482 400.94C336.264 398.921 335.891 397.085 335.152 393.413C335.152 393.413 331.864 377.149 325.509 361.946C313.874 334.112 288.286 321.07 280.413 289.982C274.375 266.123 282.237 244.808 285.527 235.712C295.949 206.887 317.138 186.582 332.605 171.755C358.599 146.841 384.126 131.66 426.412 106.509C439.227 98.8859 452.338 91.3756 465.671 84.0151L465.667 84.0175Z" fill="#97BAB3"/>
<path d="M455.646 7.12662C466.041 18.8413 476.431 30.5584 486.826 42.2731C449.164 61.7457 412.62 82.724 378.206 104.63C313.786 145.63 293.52 166.192 282.19 180.896C269.591 197.246 263.222 211.334 260.544 218.277C258.186 224.397 252.735 240.873 253.101 261.644C253.305 273.228 255.697 291.285 265.951 311.543C267.924 315.439 269.968 318.987 272.058 322.255C279 333.123 282.925 335.617 290.297 345.35C295.629 352.394 301.145 359.795 304.872 370.493C307.605 378.338 309.415 383.526 308.489 391.175C306.586 406.906 294.665 419.755 289.323 425.631C277.149 439.031 260.751 449.496 239.188 457.625C221.204 464.407 200.904 469.171 179.41 474.216C165.219 477.548 150.543 480.994 134.92 485.335C102.281 494.411 50.4517 511.409 1.53287 538.411C-21.6165 551.191 -44.1081 566.21 -63.6096 583.691C-97.4504 614.029 -108.691 643.007 -111.721 650.598C-132.233 702.038 -111.634 741.012 -103.468 754.25L-159.239 693.294C-158.408 683.165 -156.329 668.758 -150.798 651.499C-144.188 630.88 -131.726 592.54 -90.2118 554.503C-83.7329 548.567 -59.5453 527.009 -20.425 507.044C36.0886 478.204 100.785 464.422 127.583 458.714C135.801 456.962 152.299 453.599 174.399 446.997C226.541 431.422 239.938 418.723 243.818 414.755C246.636 411.867 255.931 402.144 257.951 389.901C262.161 364.424 230.105 357.055 208.934 326.427C192.896 303.228 192.503 280.272 192.473 270.963C192.353 231.032 217.652 197.7 234.14 176.507C260.651 142.436 290.802 120.367 350.024 77.6167C391.465 47.7025 428.23 24.0243 455.659 7.1195L455.646 7.12662Z" fill="#C6613C"/>
<path d="M480.326 34.1001L516.604 73.7517C469.665 94.5459 432.818 115.221 406.377 131.446C339.735 172.337 317.941 197.876 310.361 207.712C298.925 222.555 292.117 233.95 288.715 245.093C286.533 252.233 283.296 266.455 288.571 286.928C298.198 324.31 322.32 328.629 341.842 374.848C346.513 385.898 349.284 395.489 347.474 407.871C346.659 413.457 343.132 431.753 324.905 450.374C311.792 463.772 294.528 473.806 264.43 485.384C206.557 507.647 185.466 503.205 112.082 523.208C76.2506 532.974 50.0476 540.274 18.453 556.628C-2.15833 567.296 -32.5146 583.357 -55.862 611.864C-61.5832 618.847 -81.4014 644.318 -83.5533 677.425C-85.3686 705.356 -73.7112 724.842 -66.9424 734.093L-103.476 754.262C-112.831 741.534 -128.243 715.144 -122.64 678.322C-115.422 630.885 -77.8146 595.719 -62.0537 581.326C-36.176 557.698 -10.1255 543.479 7.7331 533.867C57.4859 507.091 107.473 492.993 135.033 485.366C145.421 482.494 143.118 483.371 161.642 478.39C215.089 464.015 242.219 456.589 262.22 444.788C272.689 438.61 291.124 427.487 299.389 410.465C304.26 400.431 303.768 392.116 303.071 386.915C298.216 350.661 265.448 330.966 252.936 298.887C236.726 257.335 261.764 213.628 269.926 199.379C285.344 172.464 305.314 154.541 328.16 134.345C357.223 108.654 406.027 70.8225 480.326 34.1001Z" fill="#584239"/>
</g>
</svg>

<svg width="451" height="634" fill="none" xmlns="http://www.w3.org/2000/svg"><g opacity=".4"><path d="M404.686 163.027c26.073-14.394 66.793-30.524 66.793-30.524 19.612-7.758 44.604-17.11 74.251-26.925l16.289 17.803c-34.803 8.146-62.693 17.364-81.932 24.385-39.266 14.333-73.381 27.077-104.926 52.79-13.029 10.619-30.532 25.195-36.706 45.435-4.584 15.027-.799 26.213 2.504 35.968 4.873 14.39 15.834 27.473 37.758 53.641 5.357 6.393 7.784 9.031 11.68 14.534 4.374 6.188 13.508 19.098 17.512 33.451 1.971 7.068 7.708 29.255-6.827 55.995-13.49 24.816-37.334 40.492-50.779 49.144-38.425 24.734-78.823 33.679-117.833 42.317-42.635 9.442-51.248 6.414-93.528 18.229-35.533 9.93-59.368 20.433-64.409 22.68-30.558 13.619-62.346 27.79-82.068 53.833-5.664 7.483-16.412 22.08-14.82 39.751 1.637 18.1 15.248 28.706 20.752 32.487a94380.156 94380.156 0 0 1-29.833 16.173c-16.222-14.838-18.647-29.983-19.06-37.087-1.544-26.576 18.756-49.13 29.976-61.6 13.307-14.784 27.086-24.279 35.706-30.548 29.896-21.746 58.842-32.107 86.832-42.128 29.077-10.409 45.357-13.579 65.965-17.591 16.758-3.263 35.749-6.964 67.711-15.69 85.794-23.43 104.882-39.729 112.07-45.866 17.72-15.129 26.173-30.757 28.346-35.184 3.661-7.474 9.453-22.567 7.136-39.707-1.541-11.386-5.682-16.371-14.76-27.29-5.624-6.769-13.331-16.033-22.855-30.007-15.117-22.172-24.241-35.559-26.684-55.467-1.294-10.564-3.713-30.226 10.751-53.115 10.982-17.381 26.08-27.994 43.562-40.28 10.643-7.479 21.115-13.915 31.439-19.614l-.013.007Z" fill="#F2E291"/><path d="M465.667 84.017c5.811-3.208 13.614-7.837 24.759-13.36a416.957 416.957 0 0 1 15.877-7.458c13.14 14.13 26.282 28.253 39.423 42.382a928.81 928.81 0 0 0-54.802 19.292c-24.602 9.539-48.354 18.746-76.284 33.994-26.695 14.576-51.18 27.947-71.497 51.245-6.443 7.39-18.679 21.704-23.373 40.917-3.341 13.678-1.377 23.759.204 31.383 3.701 17.846 12.401 29.823 26.105 48.28 12.869 17.332 15.662 17.09 24.569 31.095 10.258 16.126 15.695 24.671 16.283 36.887 1.233 25.579-19.73 48.003-26.468 55.211-24.438 26.141-56.8 39.119-77.229 47.101-12.076 4.718-18.488 6.358-105.339 24.863-57.472 12.245-73.327 15.506-97.22 25.253-28.848 11.769-48.35 24.399-54.283 28.344-21.723 14.445-68.9 45.755-74.223 86.447-3.074 23.473 8.853 40.412 16.133 48.743l-35.244 19.457c-4.921-5.704-11.16-14.447-14.96-26.25-6.462-20.065-2.11-37.262 1.394-51.108 1.917-7.578 5.81-19.577 16.066-34.451 11.087-16.079 23.98-26.862 32.067-33.536 20.04-16.539 39.08-26.373 56.416-35.205 12.5-6.369 32.037-15.559 57.308-24.33 32.995-11.452 59.869-16.674 86.713-21.888 25.515-4.956 46.437-7.846 80.146-17.046 12.977-3.542 20.546-6.024 29.061-9.953 7.309-3.374 29.405-13.826 44.858-33.696 0 0 16.936-21.777 14.355-45.69-.218-2.019-.591-3.855-1.33-7.527 0 0-3.288-16.264-9.643-31.467-11.635-27.834-37.223-40.876-45.096-71.964-6.038-23.859 1.824-45.174 5.114-54.27 10.422-28.825 31.611-49.13 47.078-63.957 25.994-24.914 51.521-40.095 93.807-65.246a1406.022 1406.022 0 0 1 39.259-22.494l-.004.002Z" fill="#97BAB3"/><path d="M455.646 7.127c10.395 11.714 20.785 23.431 31.18 35.146-37.662 19.473-74.206 40.451-108.62 62.357-64.42 41-84.686 61.562-96.016 76.266-12.599 16.35-18.968 30.438-21.646 37.381-2.358 6.12-7.809 22.596-7.443 43.367.204 11.584 2.596 29.641 12.85 49.899a122.78 122.78 0 0 0 6.107 10.712c6.942 10.868 10.867 13.362 18.239 23.095 5.332 7.044 10.848 14.445 14.575 25.143 2.733 7.845 4.543 13.033 3.617 20.682-1.903 15.731-13.824 28.58-19.166 34.456-12.174 13.4-28.572 23.865-50.135 31.994-17.984 6.782-38.284 11.546-59.778 16.591-14.191 3.332-28.867 6.778-44.49 11.119-32.639 9.076-84.468 26.074-133.387 53.076-23.15 12.78-45.641 27.799-65.143 45.28-33.84 30.338-45.081 59.316-48.111 66.907-20.512 51.44.087 90.414 8.253 103.652l-55.771-60.956c.831-10.129 2.91-24.536 8.441-41.795 6.61-20.619 19.072-58.959 60.586-96.996 6.48-5.936 30.667-27.494 69.787-47.459 56.514-28.84 121.21-42.622 148.008-48.33 8.218-1.752 24.716-5.115 46.816-11.717 52.142-15.575 65.539-28.274 69.419-32.242 2.818-2.888 12.113-12.611 14.133-24.854 4.21-25.477-27.846-32.846-49.017-63.474-16.038-23.199-16.431-46.155-16.461-55.464-.12-39.931 25.179-73.263 41.667-94.456 26.511-34.071 56.662-56.14 115.884-98.89 41.441-29.915 78.206-53.593 105.635-70.498l-.013.008Z" fill="#C6613C"/><path d="m480.326 34.1 36.278 39.652c-46.939 20.794-83.786 41.469-110.227 57.694-66.642 40.891-88.436 66.43-96.016 76.266-11.436 14.843-18.244 26.238-21.646 37.381-2.182 7.14-5.419 21.362-.144 41.835 9.627 37.382 33.749 41.701 53.271 87.92 4.671 11.05 7.442 20.641 5.632 33.023-.815 5.586-4.342 23.882-22.569 42.503-13.113 13.398-30.377 23.432-60.475 35.01-57.873 22.263-78.964 17.821-152.348 37.824-35.831 9.766-62.034 17.066-93.629 33.42-20.611 10.668-50.968 26.729-74.315 55.236-5.721 6.983-25.54 32.454-27.691 65.561-1.816 27.931 9.842 47.417 16.61 56.668l-36.533 20.169c-9.355-12.728-24.767-39.118-19.164-75.94 7.218-47.437 44.825-82.603 60.586-96.996 25.878-23.628 51.928-37.847 69.787-47.459 49.753-26.776 99.74-40.874 127.3-48.501 10.388-2.872 8.085-1.995 26.609-6.976 53.447-14.375 80.577-21.801 100.578-33.602 10.469-6.178 28.904-17.301 37.169-34.323 4.871-10.034 4.379-18.349 3.682-23.55-4.855-36.254-37.623-55.949-50.135-88.028-16.21-41.552 8.828-85.259 16.99-99.508 15.418-26.915 35.388-44.838 58.234-65.034 29.063-25.691 77.867-63.522 152.166-100.245Z" fill="#584239"/></g></svg>
